X: 300
T: Hangman's Waltz
C: Reg Hill
L:1/8
M:3/4
R:waltz
Q:1/4=192
K:Bb
%%text Drop E string on fiddle to D and use as a drone
Bc|d2B2Bc|d2B2 (3GAG|F2B2c2|d4Bc|
d2B2Bc|d2B2 (3GAG|F2B2c2|B4:|
DC|B,2D2F2|G3GFD|F2B2c2|d4BA|
Bc BA BF|G3GFD|F2B2A2|B4:|
